X: 213
T: Loge & Vivvy's Schottiche
B: australian dance tunes
M:4/4
L:1/8
R: Schottiche
Q: 1/4=100
K:D
V:1 
A>G|F2 A>d (3faf e>d|B<G D>G B2 (3BcB|A2 c>B A>G F>E|D>F A>d f2 f2|!
F2 A>d (3faf e>d|B<G D>G B2 (3BcB|A2 c>B A>G F>E|D2 d>d d2 A>A|!
A2 A>A A>f e>d|B2 B>B B2 e>d|c2 c>c c<b a>c|d2 f>e f2 A>A|!
A2 A>A A>f e>d|B2 B>B B2 e>d|c2 c>c c<b a>c|d2 (3ded d2||
% abcbook-tune_id 62a07850681db35f293674e0


% abcbook-boost 0
% abcbook-tablature 
% abcbook-transpose 
% abcbook-lastupdated 1654683750355
% abcbook-soundfonts 
% abcbook-repeats 1


